static/img/bun.svg

<svg xmlns="http://www.w3.org/2000/svg" xmlns:xlink="http://www.w3.org/1999/xlink" fill="none" version="1.1" width="80" height="70" viewBox="0 0 80 70"><defs><clipPath id="master_svg0_263_227"><rect x="0" y="0" width="80" height="70" rx="0"/></clipPath></defs><g clip-path="url(#master_svg0_263_227)"><g><path d="M71.09000007629395,20.739999771118164C70.93000007629394,20.569999771118162,70.76000007629395,20.399999771118164,70.59000007629395,20.239999771118164C70.42000007629395,20.079999771118164,70.26000007629395,19.899999771118164,70.09000007629395,19.739999771118164C69.92000007629395,19.579999771118164,69.76000007629395,19.399999771118164,69.59000007629395,19.239999771118164C69.42000007629395,19.079999771118164,69.26000007629395,18.899999771118164,69.09000007629395,18.739999771118164C68.92000007629395,18.579999771118164,68.76000007629395,18.399999771118164,68.59000007629395,18.239999771118164C68.42000007629395,18.079999771118164,68.26000007629395,17.899999771118164,68.09000007629395,17.739999771118164C67.92000007629395,17.579999771118164,67.76000007629395,17.399999771118164,67.59000007629395,17.239999771118164C72.55020007629395,22.114719771118164,75.39170007629394,28.746299771118164,75.50000007629394,35.699999771118165C75.50000007629394,52.269999771118165,58.68000007629394,65.74999977111815,38.000000076293944,65.74999977111815C26.420000076293945,65.74999977111815,16.060000076293946,61.519999771118165,9.170000076293945,54.88999977111816L9.670000076293945,55.38999977111816L10.170000076293945,55.88999977111816L10.670000076293945,56.38999977111816L11.170000076293945,56.88999977111816L11.670000076293945,57.38999977111816L12.170000076293945,57.88999977111816L12.670000076293945,58.38999977111816C19.550000076293948,65.29999977111817,30.140000076293944,69.74999977111815,42.000000076293944,69.74999977111815C62.68000007629394,69.74999977111815,79.50000007629394,56.269999771118165,79.50000007629394,39.74999977111817C79.50000007629394,32.68999977111817,76.46000007629395,25.999999771118162,71.09000007629395,20.739999771118164Z" fill="#000000" fill-opacity="1"/></g><g><g><path d="M73,35.7C73,50.91,57.33,63.24,38,63.24C18.67,63.24,3,50.91,3,35.7C3,26.27,9,17.939999999999998,18.22,13C27.44,8.059999999999999,33.18,3,38,3C42.82,3,46.94,7.13,57.78,13C67,17.939999999999998,73,26.27,73,35.7Z" fill="#FBF0DF" fill-opacity="1"/></g><g><path d="M72.99999725341797,35.70000007629395C72.99509725341797,33.74608007629394,72.72599725341797,31.801790076293944,72.19999725341796,29.920000076293945C69.46999725341797,63.22000007629394,28.849997253417968,64.82000007629395,12.879997253417969,54.86000007629394C20.05902725341797,60.42440007629395,28.91809725341797,63.37970007629394,37.99999725341797,63.240000076293946C57.29999725341797,63.240000076293946,72.99999725341797,50.890000076293944,72.99999725341797,35.70000007629395Z" fill="#F6DECE" fill-opacity="1"/></g><g><path d="M24.53,11.17C29,8.49,34.94,3.46,40.78,3.45C39.8816,3.1596,38.9441,3.00785732,38,3C35.58,3,33,4.25,29.75,6.13C28.62,6.79,27.45,7.52,26.21,8.280000000000001C23.88,9.719999999999999,21.21,11.35,18.21,12.98C8.690000000000001,18.130000000000003,3,26.62,3,35.7C3,36.1,3,36.5,3,36.89C9.059999999999999,15.48,20.07,13.85,24.53,11.17Z" fill="#FFFEFC" fill-opacity="1"/></g><g><path d="M35.11999954223633,5.529999813690186C35.14829954223633,10.308089813690184,33.09259954223633,14.861259813690186,29.489999542236326,17.999959813690186C29.20999954223633,18.249959813690186,29.429999542236327,18.729959813690186,29.78999954223633,18.589959813690186C33.15999954223633,17.279959813690184,37.70999954223633,13.359999813690186,35.78999954223633,5.4499998136901855C35.70999954223633,4.999999813690185,35.11999954223633,5.119999813690185,35.11999954223633,5.529999813690186ZM37.389999542236325,5.529999813690186C39.86609954223633,9.570099813690184,40.454199542236324,14.490139813690185,38.999999542236324,18.999959813690186C38.87999954223633,19.349959813690184,39.309999542236326,19.649959813690188,39.54999954223633,19.359959813690185C41.73999954223633,16.559959813690185,43.64999954223633,10.999999813690184,37.92999954223633,4.999999813690185C37.639999542236325,4.7399998136901855,37.18999954223633,5.139999813690186,37.389999542236325,5.4899998136901855L37.389999542236325,5.529999813690186ZM40.14999954223633,5.359999813690186C44.02679954223633,8.104669813690185,46.52519954223633,12.393729813690186,46.999999542236324,17.119959813690187C46.97899954223632,17.294859813690188,47.098899542236325,17.455359813690187,47.27259954223633,17.484759813690186C47.44619954223633,17.514159813690185,47.61229954223633,17.402059813690187,47.64999954223633,17.229959813690186C48.56999954223633,13.739999813690186,48.04999954223633,7.789999813690185,40.47999954223633,4.7000017136901855C40.07999954223633,4.539999813690185,39.81999954223633,5.079999813690185,40.14999954223633,5.319999813690186L40.14999954223633,5.359999813690186ZM21.690000542236326,15.759959813690186C26.29966954223633,14.382859813690185,30.10634954223633,11.110639813690184,32.15999954223633,6.759999813690186C32.33999954223633,6.399999813690186,32.90999954223633,6.539999813690185,32.81999954223633,6.939999813690186C31.089999542236328,14.939959813690185,25.29999954223633,16.609959813690185,21.700000542236328,16.389959813690183C21.319999742236327,16.399959813690188,21.329999942236327,15.869959813690185,21.690000542236326,15.759959813690186Z" fill-rule="evenodd" fill="#CCBEA7" fill-opacity="1"/></g><g><path d="M38,65.75C17.32,65.75,0.5,52.27,0.5,35.7C0.5,25.7,6.68,16.369999999999997,17.03,10.78C20.03,9.18,22.6,7.57,24.89,6.16C26.15,5.38,27.34,4.65,28.49,3.97C32,1.89,35,0.5,38,0.5C41,0.5,43.62,1.7,46.9,3.64C47.9,4.21,48.9,4.83,49.97,5.51C52.46,7.05,55.27,8.79,58.97,10.78C69.32,16.369999999999997,75.5,25.69,75.5,35.7C75.5,52.27,58.68,65.75,38,65.75ZM38,3C35.58,3,33,4.25,29.75,6.13C28.62,6.79,27.45,7.52,26.21,8.280000000000001C23.88,9.72,21.21,11.35,18.21,12.98C8.69,18.13,3,26.62,3,35.7C3,50.89,18.7,63.25,38,63.25C57.3,63.25,73,50.89,73,35.7C73,26.62,67.31,18.13,57.78,13C54,11,51.05,9.12,48.66,7.64C47.57,6.97,46.57,6.35,45.66,5.8C42.63,4,40.42,3,38,3Z" fill="#000000" fill-opacity="1"/></g></g><g><g><g><path d="M45.050019668579104,42.99999967993164C44.6007196685791,44.83992567993164,43.5782196685791,46.48937567993164,42.1300196685791,47.70999567993164C41.0427596685791,48.76394567993164,39.6352596685791,49.42546567993164,38.1299996685791,49.58999567993164C36.5795096685791,49.45154567993164,35.1226296685791,48.78835567993164,33.9999996685791,47.70999567993164C32.566609668579105,46.48360567993164,31.5584146685791,44.83478567993164,31.120000838579102,42.99999967993164C31.0577640685791,42.53340167993164,31.452663668579103,42.133563979931644,31.919999668579102,42.189998629931644L44.260019668579105,42.189998629931644C44.7234196685791,42.14069747993164,45.1109196685791,42.53795667993164,45.050019668579104,42.99999967993164Z" fill="#B71422" fill-opacity="1"/></g></g><g><g><path d="M34.00000001635742,47.78999984741211C35.12033801635742,48.86898984741211,36.57195801635742,49.53841984741211,38.11999801635742,49.68999984741211C39.66450801635742,49.53623984741211,41.11227801635742,48.86695984741211,42.22999801635742,47.78999984741211C42.58753801635742,47.45674984741211,42.92165801635742,47.09922984741211,43.22999801635742,46.71999984741211C41.98490801635742,45.30748384741211,40.21191801635742,44.47164534741211,38.32999801635742,44.40999984741211C36.30753801635742,44.45789334741211,34.43798801635742,45.497359847412106,33.32999801635742,47.18999984741211C33.560001016357425,47.39999984741211,33.75999801635742,47.59999984741211,34.00000001635742,47.78999984741211Z" fill="#FF6164" fill-opacity="1"/></g><g><path d="M34.15999984741211,46.99999603271485C35.16446984741211,45.701636032714845,36.70850984741211,44.93514603271484,38.34999984741211,44.91999603271484C39.84756984741211,44.96416603271484,41.27442984741211,45.56701603271485,42.34999984741211,46.60999603271485C42.57999984741211,46.35999603271485,42.79999984741211,46.09999603271484,43.00999984741211,45.83999603271484C41.73781984741211,44.62841803271484,40.05655984741211,43.939495132714846,38.29999984741211,43.909996032714844C36.39922984741211,43.926387832714845,34.60542984741211,44.792110032714845,33.40999984741211,46.26999603271484C33.64643884741211,46.52688603271484,33.89681584741211,46.770586032714846,34.15999984741211,46.99999603271485Z" fill="#000000" fill-opacity="1"/></g></g><g><path d="M38.09000402404785,50.19000060791016C36.42363402404785,50.04399060791016,34.855484024047854,49.339210607910154,33.640004024047855,48.19000060791016C32.092054024047854,46.880760607910155,31.002495024047853,45.11154060791016,30.52999882404785,43.14000060791015C30.461374324047853,42.78451060791016,30.55691722404785,42.41704160791016,30.78999902404785,42.139999607910156C31.067715024047853,41.804641607910156,31.48479102404785,41.61640550791016,31.919994024047853,41.63000106791016L44.260034024047854,41.63000106791016C44.69433402404785,41.62084960791016,45.10953402404785,41.80825460791016,45.39003402404785,42.139999607910156C45.62083402404785,42.41807160791016,45.71283402404785,42.78599060791016,45.64003402404785,43.14000060791015C45.16753402404785,45.11154060791016,44.07793402404785,46.880760607910155,42.53003402404785,48.19000060791016C41.31713402404785,49.33717060791015,39.75285402404785,50.041800607910154,38.09000402404785,50.19000060791016ZM31.920004024047852,42.79000060791016C31.760004024047852,42.79000060791016,31.720004024047853,42.86000060791016,31.71000402404785,42.880000607910155C32.13271402404785,44.58967060791016,33.08891402404785,46.12030060791015,34.44000402404785,47.25000060791015C35.42796402404785,48.22334060791016,36.712464024047854,48.83920060791016,38.09000402404785,49.00000060791015C39.46398402404785,48.84102060791015,40.74703402404785,48.232880607910154,41.74003402404785,47.270000607910156C43.08683402404785,46.13838060791016,44.039334024047854,44.60810060791016,44.46003402404785,42.90000060791016C44.41553402404785,42.83481060791016,44.33823402404785,42.800040607910155,44.260034024047854,42.810000607910155L31.920004024047852,42.79000060791016Z" fill="#000000" fill-opacity="1"/></g></g><g><g><ellipse cx="53.219998836517334" cy="40.180001735687256" rx="5.849999904632568" ry="3.440000057220459" fill="#FEBBD0" fill-opacity="1"/></g><g><ellipse cx="22.950000286102295" cy="40.180001735687256" rx="5.849999904632568" ry="3.440000057220459" fill="#FEBBD0" fill-opacity="1"/></g><g><path d="M25.700000762939453,38.8000064086914C28.744390762939453,38.80550640869141,31.216300762939454,36.341066408691404,31.220000762939453,33.296676408691404C31.22370076293945,30.252286408691408,28.757730762939453,27.781852718691407,25.713340762939453,27.780008316041407C22.668950762939453,27.778169628691405,20.200002670289454,30.245616408691404,20.200000762939453,33.28999640869141C20.199996948239452,36.329186408691406,22.66082076293945,38.794506408691404,25.700000762939453,38.8000064086914ZM50.47000076293945,38.8000064086914C53.51820076293945,38.822106408691404,56.00520076293945,36.3651064086914,56.01990076293945,33.31685640869141C56.03470076293945,30.268616408691408,53.57170076293945,27.787591938691406,50.52340076293945,27.780160903691407C47.47510076293945,27.772811888691407,45.00000076293945,30.241806408691406,45.00000076293945,33.28999640869141C44.99440076293945,36.31978640869141,47.440200762939455,38.78350640869141,50.47000076293945,38.8000064086914Z" fill-rule="evenodd" fill="#000000" fill-opacity="1"/></g><g><path d="M24.000000534057616,33.640002888183595C25.144520534057616,33.64552288818359,26.076300534057616,32.7212228881836,26.079990534057618,31.576692888183594C26.083680534057617,30.432172888183594,25.15787053405762,29.501874928183593,24.01335053405762,29.500024795533594C22.868808534057617,29.498186108183592,21.940000534057617,30.425483888183592,21.940000534057617,31.570002888183595C21.939987182657617,32.709332888183596,22.86067753405762,33.634492888183594,24.000000534057616,33.640002888183595ZM48.770000534057615,33.640002888183595C49.914500534057616,33.64552288818359,50.84630053405762,32.721212888183594,50.850000534057614,31.576692888183594C50.853700534057616,30.432170888183595,49.92790053405761,29.501874928183593,48.78330053405762,29.500024795533594C47.638800534057616,29.498186108183592,46.71000053405761,30.425483888183592,46.71000053405761,31.570002888183595C46.70990053405762,32.70162288818359,47.61850053405762,33.62360288818359,48.75000053405762,33.640002888183595L48.770000534057615,33.640002888183595Z" fill-rule="evenodd" fill="#FFFFFF" fill-opacity="1"/></g></g></g></svg>

<svg xmlns="http://www.w3.org/2000/svg" fill="none" width="80" height="70" viewBox="0 0 80 70"><path d="M71 20.7l-.4-.5-.6-.5-.4-.5-.6-.5-.4-.5-.6-.5-.4-.5c5 4.9 7.8 11.5 7.9 18.5 0 16.6-16.8 30-37.5 30-11.6 0-22-4.2-28.8-10.8l.5.5.5.5.5.5.5.5.5.5.5.5.5.5c6.9 6.9 17.4 11.3 29.3 11.3 20.7 0 37.5-13.4 37.5-30 0-7-3-13.7-8.5-19z" fill="#000"/><path d="M73 35.7C73 51 57.3 63.2 38 63.2S3 51 3 35.7C3 26.3 9 18 18.2 13S33.2 3 38 3c4.8 0 9 4.1 19.8 10C67 18 73 26.3 73 35.7z" fill="#FBF0DF"/><path d="M73 35.7c0-2-.3-3.9-.8-5.7-2.7 33.2-43.3 34.8-59.3 24.9C20 60.4 29 63.4 38 63.2c19.3 0 35-12.3 35-27.5z" fill="#F6DECE"/><path d="M24.5 11.2C29 8.5 35 3.5 40.8 3.5 39.9 3.2 39 3 38 3c-2.4 0-5 1.3-8.2 3.1l-3.6 2.2-8 4.7C8.7 18.1 3 26.6 3 35.7v1.2c6-21.4 17-23.1 21.5-25.7z" fill="#FFFEFC"/><path d="M35.1 5.5c0 4.8-2.1 9.4-5.6 12.5-.3.2-.1.7.3.6 3.4-1.3 7.9-5.2 6-13.2-.1-.4-.7-.3-.7.1zm2.3 0c2.5 4.1 3.1 9 1.6 13.5-.1.3.3.6.5.4C41.7 16.6 43.6 11 38 5c-.4-.3-.8.1-.6.5zm2.7-.1c3.9 2.7 6.4 7 6.9 11.7 0 .2.1.4.3.4.1 0 .3-.1.3-.3 1-3.5.4-9.4-7.1-12.5-.5-.2-.7.3-.4.6v.1zM21.7 15.8c4.6-1.4 8.4-4.7 10.5-9 .1-.4.8-.3.6.2-1.8 8-7.5 9.6-11.1 9.4-.4 0-.4-.5 0-.6z" fill-rule="evenodd" fill="#CCBEA7"/><path d="M38 65.8C17.3 65.8.5 52.3.5 35.6c0-10 6.2-19.3 16.5-24.9 3-1.6 5.6-3.2 7.9-4.6L28.5 4C32 1.9 35 .5 38 .5s5.6 1.2 8.9 3.1L50 5.5c2.5 1.5 5.3 3.3 9 5.3 10.3 5.6 16.5 14.9 16.5 24.9 0 16.6-16.8 30.1-37.5 30.1zM38 3c-2.4 0-5 1.3-8.2 3.1l-3.6 2.2-8 4.7C8.7 18.1 3 26.6 3 35.7c0 15.2 15.7 27.6 35 27.6s35-12.4 35-27.6c0-9.1-5.7-17.6-15.2-22.7-3.8-2-6.8-3.9-9.1-5.4l-3-1.8C42.6 4 40.4 3 38 3z" fill="#000"/><path d="M45 43c-.4 1.8-1.4 3.5-2.9 4.7-1.1 1.1-2.5 1.7-4 1.9-1.5-.1-3-.8-4.1-1.9-1.4-1.2-2.4-2.9-2.9-4.7-.1-.5.4-.9.9-.8h12.3c.4-.1.8.3.7.8z" fill="#B71422"/><path d="M34 47.8c1.1 1.1 2.6 1.7 4.1 1.9 1.6-.2 3-.8 4.1-1.9.4-.3.8-.7 1-1.1-1.2-1.4-3-2.2-4.9-2.3-2 .1-3.9 1.1-5 2.8l.7.6z" fill="#FF6164"/><path d="M34.2 47c1-1.3 2.5-2 4.1-2 1.5 0 3 .6 4 1.6l.7-.8c-1.3-1.2-3-1.8-4.7-1.8-1.9 0-3.7.8-4.9 2.3l.8.7z" fill="#000"/><path d="M38 50.2c-1.6-.2-3.1-.9-4.4-2-1.6-1.3-2.6-3.1-3.1-5.1 0-.3.1-.7.3-1 .2-.3.7-.5 1.2-.5h12.3c.4 0 .8.2 1.1.5.2.3.3.7.2 1-.4 2-1.6 3.8-3.1 5.1-1.2 1.1-2.7 1.8-4.5 2zm-6-7.4l-.3.1c.4 1.7 1.3 3.2 2.7 4.4 1 .9 2.3 1.5 3.6 1.7 1.5-.2 2.7-.8 3.7-1.7 1.3-1.2 2.3-2.7 2.8-4.4l-.2-.1H32z" fill="#000"/><ellipse cx="53.22" cy="40.18" rx="5.85" ry="3.44" fill="#FEBBD0"/><ellipse cx="22.95" cy="40.18" rx="5.85" ry="3.44" fill="#FEBBD0"/><path d="M25.7 38.8c3 0 5.5-2.5 5.5-5.5s-2.4-5.5-5.5-5.5c-3 0-5.5 2.4-5.5 5.5 0 3 2.5 5.5 5.5 5.5zm24.8 0c3 0 5.5-2.4 5.5-5.5 0-3-2.4-5.5-5.5-5.5-3 0-5.5 2.4-5.5 5.5 0 3 2.4 5.5 5.5 5.5z" fill-rule="evenodd" fill="#000"/><path d="M24 33.6c1.1 0 2-.9 2-2 0-1.2-.8-2.1-2-2.1-1.1 0-2 .9-2 2.1 0 1.1.9 2 2 2zm24.8 0c1.2 0 2-.9 2-2 .1-1.2-.8-2.1-2-2.1s-2.1.9-2.1 2.1c0 1.1.9 2 2 2h.1z" fill-rule="evenodd" fill="#FFF"/></svg>
